img/parceiros/wildbeast.svg

<svg width="196" height="34" viewBox="0 0 196 34" fill="none" xmlns="http://www.w3.org/2000/svg">
<g clip-path="url(#clip0_11_51)">
<path d="M21.644 32.9551C20.4706 32.9866 19.3082 32.7221 18.264 32.1861C17.2254 31.6538 16.3395 30.8657 15.69 29.8961C13.6449 31.7746 10.9953 32.8596 8.22 32.9551C3.233 32.9551 0.53 29.4911 1.443 24.5251C2.137 20.7911 5.242 17.0491 6.11 14.0451C4.43 13.0371 1.936 12.3351 0.767 14.3951L0 13.9361C0.612 11.6781 2.091 10.1761 4.228 10.1761C6.365 10.1761 7.945 11.4261 9.982 10.2751H11.607C10.74 14.7731 8.548 18.3711 7.379 24.6691C6.667 28.5291 7.991 30.2831 10.229 30.2831C11.8822 30.0798 13.403 29.2758 14.502 28.0241C13.6095 25.8277 13.1596 23.4768 13.178 21.1061C13.178 15.6361 15.726 9.87009 20 9.87009C22.192 9.87009 23.817 11.3721 23.817 14.9351C23.817 18.4971 21.626 24.0121 18.831 27.4751C18.982 28.3001 19.421 29.0471 20.071 29.5881C20.721 30.1281 21.542 30.4281 22.393 30.4361C26.466 30.4361 29.315 24.4161 29.315 18.8481C29.315 13.2801 26.868 13.5311 27.078 11.6511C27.0969 11.4162 27.162 11.1873 27.2696 10.9776C27.3772 10.7679 27.5252 10.5815 27.705 10.4291C28.069 10.1191 28.543 9.96409 29.023 9.99609C30.293 9.99609 31.963 11.5791 31.963 18.0031C31.963 26.1891 27.544 32.9551 21.644 32.9551ZM20.722 12.6951C19.452 12.6951 18.228 17.3101 18.073 22.0781C18.0137 23.0977 18.0321 24.1203 18.128 25.1371C20.0432 22.0182 21.2119 18.499 21.543 14.8541C21.534 13.2341 21.233 12.6941 20.721 12.6941L20.722 12.6951ZM40.329 32.7481C39.7964 32.8023 39.2584 32.7406 38.752 32.5671C38.2475 32.3947 37.7868 32.1141 37.402 31.7451C37.0197 31.3781 36.7233 30.9311 36.534 30.4361C36.3451 29.9432 36.2686 29.4143 36.31 28.8881C36.31 26.6841 39.215 15.6991 39.215 13.8911C39.215 13.0371 39.014 12.5331 38.247 12.5331C37.3912 12.6704 36.5942 13.0548 35.954 13.6391V12.0831C37.2835 10.877 38.9997 10.1849 40.794 10.1311C41.3299 10.0834 41.8698 10.1516 42.377 10.3311C42.883 10.5111 43.343 10.7961 43.726 11.1691C44.108 11.5411 44.404 11.9911 44.592 12.4891C44.779 12.9851 44.855 13.5161 44.812 14.0441C44.812 16.2481 41.909 27.1881 41.909 28.9871C41.909 29.8421 42.109 30.3461 42.877 30.3461C43.7212 30.2057 44.5126 29.8422 45.169 29.2931V30.7951C43.8445 32.0093 42.1253 32.7031 40.329 32.7481ZM43.89 0.999089C44.288 0.987089 44.684 1.05909 45.051 1.21309C45.417 1.36709 45.746 1.59709 46.012 1.88809C46.279 2.17687 46.4787 2.52128 46.5967 2.89651C46.7146 3.27175 46.7478 3.66846 46.694 4.05809C46.5958 4.88999 46.1972 5.6574 45.573 6.21609C44.9435 6.77989 44.1329 7.09953 43.288 7.11709C42.8905 7.12968 42.4949 7.0567 42.128 6.90309C41.7623 6.75031 41.4341 6.52002 41.166 6.22809C40.899 5.93931 40.6993 5.5949 40.5813 5.21967C40.4634 4.84443 40.4302 4.44772 40.484 4.05809C40.5823 3.22621 40.9809 2.45884 41.605 1.90009C42.2347 1.33673 43.0453 1.01646 43.89 0.999089ZM55.196 28.0341C54.941 29.3921 55.096 30.3371 56.064 30.3371C56.9112 30.2067 57.7051 29.8419 58.356 29.2841L58.447 30.7951C57.1176 32.0015 55.4014 32.694 53.607 32.7481C50.447 32.7481 49.224 30.4901 49.69 27.6831L52.795 10.2751C53.827 4.46309 53.47 3.69809 50.31 3.69809L50.511 2.29509L60.036 1.05309L55.196 28.0341ZM81.982 27.9881C81.726 29.3471 81.826 30.3461 82.849 30.3461C83.6981 30.1874 84.4896 29.8053 85.142 29.2391V30.7951C83.8212 32.0151 82.0996 32.7097 80.302 32.7481C79.3927 32.814 78.4912 32.5412 77.771 31.9821C77.0565 31.4285 76.5772 30.6257 76.429 29.7341C75.6625 30.7326 74.6786 31.5434 73.552 32.1051C72.4197 32.6705 71.1745 32.9733 69.909 32.9911C63.854 32.9911 61.306 27.7281 62.475 21.4031C63.644 15.0791 69.095 9.91509 75.26 9.91509C76.7175 9.88456 78.1591 10.2216 79.452 10.8951L79.607 10.0951C80.813 3.90509 80.256 3.69809 77.096 3.69809L77.251 2.29509L86.821 1.05309L81.981 27.9891L81.982 27.9881ZM75.415 12.1821C71.899 12.1821 69.562 16.2931 68.639 21.3581C67.671 26.6751 68.283 30.3551 71.589 30.3551C73.826 30.3551 76.374 27.6551 77.141 23.5351L79.023 13.1001C77.9348 12.4506 76.6813 12.1317 75.415 12.1821ZM98.073 32.9991C90.995 32.9991 89.059 27.9791 89.927 23.1661L92.237 10.2751C93.306 4.45509 92.95 3.65309 89.79 3.65309L89.99 2.25009L99.543 1.05309L97.607 11.9841C99.1008 10.708 100.986 9.98112 102.95 9.92409C109.114 9.92409 112.009 15.0881 110.895 21.4121C109.781 27.7371 104.11 32.9991 98.073 32.9991ZM101.379 12.3081C100.352 12.3282 99.3576 12.6687 98.534 13.2821C97.7166 13.8907 97.1139 14.7434 96.813 15.7171L95.388 23.8141C94.52 28.6271 96.256 30.5881 98.448 30.5881C101.653 30.5881 103.644 27.0801 104.712 21.3131C105.662 16.1491 104.795 12.3351 101.37 12.3351L101.379 12.3081ZM120.548 24.3271C120.548 28.1871 122.429 30.2471 126.027 30.2471C127.854 30.2471 130.511 28.9971 132.192 27.3411L132.904 28.9421C131.693 30.2051 130.242 31.2141 128.637 31.9101C127.025 32.6089 125.291 32.9821 123.534 33.0081C118.192 33.0081 114.575 29.0951 114.575 23.7781C114.575 15.9061 121.196 9.93309 127.562 9.93309C131.434 9.93309 133.616 12.0381 133.616 14.4941C133.571 18.3081 129.9 22.5911 120.548 24.3271ZM127.114 12.2361C124.21 12.2361 121.416 16.4011 120.648 22.3661C126.502 20.9621 128.995 17.0491 129.05 14.5391C129.041 13.1361 128.374 12.2361 127.105 12.2361H127.114ZM154.393 32.7481C153.484 32.8139 152.582 32.5411 151.862 31.9821C151.148 31.4284 150.669 30.6256 150.521 29.7341C149.783 30.7322 148.822 31.5446 147.715 32.1071C146.603 32.6731 145.376 32.9753 144.128 32.9901C138.174 32.9901 135.626 27.7281 136.822 21.4031C138.018 15.0791 143.379 9.92309 149.562 9.92309C150.872 9.91646 152.17 10.1739 153.379 10.6801H159.187L156.073 27.9881C155.817 29.3471 155.918 30.3461 156.941 30.3461C157.79 30.1872 158.581 29.8051 159.233 29.2391V30.7951C157.912 32.015 156.191 32.7096 154.393 32.7481ZM149.708 12.1821C146.292 12.1821 143.9 16.2931 142.986 21.3581C142.018 26.6751 142.685 30.3551 145.726 30.3551C148.064 30.3551 150.566 27.5481 151.279 23.5351L153.16 13.1001C152.133 12.4506 150.931 12.1303 149.717 12.1821H149.708ZM177.005 15.8431C175.626 15.8431 175.269 14.7911 174.868 13.6841C174.731 13.1245 174.402 12.6306 173.939 12.2881C173.472 11.9427 172.9 11.7686 172.32 11.7951C171.566 11.7552 170.824 11.9952 170.237 12.4691C169.654 12.9382 169.27 13.6099 169.16 14.3501C169.005 15.7091 170.027 16.8601 171.963 18.5151L174.557 20.6201C175.521 21.3379 176.269 22.3064 176.721 23.4201C177.17 24.5301 177.303 25.7401 177.105 26.9181C176.447 30.6781 173.288 32.9901 169.059 32.9901C163.963 32.9901 160.712 30.0301 161.068 28.0241C161.151 27.4971 161.421 27.0141 161.831 26.6661C162.241 26.3161 162.764 26.1221 163.306 26.1171C164.63 26.1171 165.132 27.1161 165.543 28.4201C165.807 29.1701 166.314 29.8121 166.986 30.2481C167.66 30.6844 168.459 30.8891 169.26 30.8311C170.052 30.8686 170.829 30.613 171.444 30.1131C172.053 29.6174 172.454 28.9106 172.566 28.1331C172.767 26.3331 171.653 25.2271 169.562 23.3641L167.014 21.1601C166.118 20.4868 165.418 19.5869 164.986 18.5531C164.556 17.5244 164.411 16.3991 164.566 15.2951C165.023 12.8841 167.306 9.89709 172.557 9.89709C176.63 9.89709 179.178 12.1551 178.95 13.9631C178.924 14.4618 178.71 14.932 178.35 15.2781C177.99 15.6261 177.509 15.8281 177.005 15.8431ZM195.644 12.6951H190.703L188.311 26.0271C187.799 28.7891 188.21 30.0401 189.735 30.0401C190.548 30.0401 191.826 29.5901 193.653 27.7371L193.753 29.6891C192.923 30.6568 191.895 31.4344 190.738 31.9691C189.576 32.5068 188.312 32.7905 187.032 32.8011C183.571 32.8011 181.836 30.3911 182.658 25.9281L185.05 12.6951H181.187L181.489 10.6351H185.388L186.411 4.67009H192.11L191.041 10.6341H195.982L195.644 12.6951Z" fill="#9C9C9C"/>
</g>
<defs>
<clipPath id="clip0_11_51">
<rect width="196" height="34" fill="white"/>
</clipPath>
</defs>
</svg>

<svg width="196" height="34" fill="none" xmlns="http://www.w3.org/2000/svg">
  <path d="M21.644 32.955a6.99 6.99 0 0 1-3.38-.769 6.869 6.869 0 0 1-2.574-2.29 11.634 11.634 0 0 1-7.47 3.06c-4.987 0-7.69-3.465-6.777-8.43.694-3.735 3.799-7.477 4.667-10.48-1.68-1.009-4.174-1.71-5.343.35L0 13.935c.612-2.258 2.091-3.76 4.228-3.76 2.137 0 3.717 1.25 5.754.1h1.625c-.867 4.497-3.059 8.095-4.228 14.393-.712 3.86.612 5.614 2.85 5.614a6.789 6.789 0 0 0 4.273-2.259 18.005 18.005 0 0 1-1.324-6.918c0-5.47 2.548-11.236 6.822-11.236 2.192 0 3.817 1.502 3.817 5.065 0 3.562-2.191 9.077-4.986 12.54.151.825.59 1.572 1.24 2.113.65.54 1.471.84 2.322.848 4.073 0 6.922-6.02 6.922-11.588s-2.447-5.317-2.237-7.197a1.79 1.79 0 0 1 .627-1.222c.364-.31.838-.465 1.318-.433 1.27 0 2.94 1.583 2.94 8.007 0 8.186-4.42 14.952-10.32 14.952h.001Zm-.922-20.26c-1.27 0-2.494 4.615-2.649 9.383a20.13 20.13 0 0 0 .055 3.06 23.759 23.759 0 0 0 3.415-10.284c-.009-1.62-.31-2.16-.822-2.16l.001.001Zm19.607 20.053a3.707 3.707 0 0 1-1.577-.18 3.661 3.661 0 0 1-1.35-.823 3.594 3.594 0 0 1-.868-1.309 3.548 3.548 0 0 1-.224-1.548c0-2.204 2.905-13.189 2.905-14.997 0-.854-.201-1.358-.968-1.358a4.446 4.446 0 0 0-2.293 1.106v-1.556a7.54 7.54 0 0 1 4.84-1.952 3.716 3.716 0 0 1 2.932 1.038c.382.372.678.822.866 1.32.187.496.263 1.027.22 1.555 0 2.204-2.903 13.144-2.903 14.943 0 .855.2 1.36.968 1.36a4.8 4.8 0 0 0 2.292-1.054v1.502a7.438 7.438 0 0 1-4.84 1.953ZM43.89 1c.398-.012.794.06 1.161.214.366.154.695.384.961.675a2.662 2.662 0 0 1 .682 2.17 3.437 3.437 0 0 1-1.121 2.158c-.63.564-1.44.884-2.285.901a2.776 2.776 0 0 1-2.122-.889 2.662 2.662 0 0 1-.682-2.17c.098-.832.497-1.6 1.121-2.158A3.536 3.536 0 0 1 43.89 1Zm11.306 27.035c-.255 1.358-.1 2.303.868 2.303a4.597 4.597 0 0 0 2.292-1.053l.091 1.511a7.54 7.54 0 0 1-4.84 1.953c-3.16 0-4.383-2.258-3.917-5.065l3.105-17.408c1.032-5.812.675-6.577-2.485-6.577l.201-1.403 9.525-1.242-4.84 26.98v.001Zm26.786-.046c-.256 1.36-.156 2.358.867 2.358a4.86 4.86 0 0 0 2.293-1.107v1.556a7.365 7.365 0 0 1-4.84 1.953 3.692 3.692 0 0 1-2.531-.766 3.588 3.588 0 0 1-1.342-2.248 8.29 8.29 0 0 1-2.877 2.371 8.42 8.42 0 0 1-3.643.886c-6.055 0-8.603-5.263-7.434-11.588 1.169-6.324 6.62-11.488 12.785-11.488a8.68 8.68 0 0 1 4.192.98l.155-.8c1.206-6.19.649-6.397-2.511-6.397l.155-1.403 9.57-1.242-4.84 26.936h.001Zm-6.567-15.806c-3.516 0-5.853 4.111-6.776 9.176-.968 5.317-.356 8.997 2.95 8.997 2.237 0 4.785-2.7 5.552-6.82L79.023 13.1a6.533 6.533 0 0 0-3.608-.918ZM98.073 33c-7.078 0-9.014-5.02-8.146-9.833l2.31-12.89c1.069-5.82.713-6.623-2.447-6.623l.2-1.403 9.553-1.197-1.936 10.931a8.61 8.61 0 0 1 5.343-2.06c6.164 0 9.059 5.164 7.945 11.488C109.781 27.737 104.11 33 98.073 33Zm3.306-20.69a4.923 4.923 0 0 0-2.845.973 4.804 4.804 0 0 0-1.721 2.435l-1.425 8.097c-.868 4.813.868 6.774 3.06 6.774 3.205 0 5.196-3.508 6.264-9.275.95-5.164.083-8.978-3.342-8.978l.009-.027Zm19.169 12.018c0 3.86 1.881 5.92 5.479 5.92 1.827 0 4.484-1.25 6.165-2.906l.712 1.601a13.172 13.172 0 0 1-4.267 2.968 13.325 13.325 0 0 1-5.103 1.098c-5.342 0-8.959-3.913-8.959-9.23 0-7.872 6.621-13.845 12.987-13.845 3.872 0 6.054 2.105 6.054 4.561-.045 3.814-3.716 8.097-13.068 9.833Zm6.566-12.09c-2.904 0-5.698 4.164-6.466 10.13 5.854-1.405 8.347-5.318 8.402-7.828-.009-1.403-.676-2.303-1.945-2.303h.009Zm27.279 20.511a3.693 3.693 0 0 1-2.531-.766 3.589 3.589 0 0 1-1.341-2.248 7.992 7.992 0 0 1-2.806 2.373 8.119 8.119 0 0 1-3.587.883c-5.954 0-8.502-5.262-7.306-11.587 1.196-6.324 6.557-11.48 12.74-11.48a9.755 9.755 0 0 1 3.817.757h5.808l-3.114 17.308c-.256 1.36-.155 2.358.868 2.358a4.86 4.86 0 0 0 2.292-1.107v1.556a7.366 7.366 0 0 1-4.84 1.953Zm-4.685-20.566c-3.416 0-5.808 4.111-6.722 9.176-.968 5.317-.301 8.997 2.74 8.997 2.338 0 4.84-2.807 5.553-6.82L153.16 13.1a5.967 5.967 0 0 0-3.443-.918h-.009Zm27.297 3.661c-1.379 0-1.736-1.052-2.137-2.159a2.466 2.466 0 0 0-.929-1.396 2.53 2.53 0 0 0-1.619-.493c-.754-.04-1.496.2-2.083.674a2.975 2.975 0 0 0-1.077 1.881c-.155 1.36.867 2.51 2.803 4.165l2.594 2.105a6.571 6.571 0 0 1 2.164 2.8c.449 1.11.582 2.32.384 3.498-.658 3.76-3.817 6.072-8.046 6.072-5.096 0-8.347-2.96-7.991-4.966a2.24 2.24 0 0 1 .763-1.358c.41-.35.933-.544 1.475-.549 1.324 0 1.826 1 2.237 2.303.264.75.771 1.392 1.443 1.828a3.695 3.695 0 0 0 2.274.583 3.22 3.22 0 0 0 2.184-.718 3.129 3.129 0 0 0 1.122-1.98c.201-1.8-.913-2.906-3.004-4.769l-2.548-2.204a6.299 6.299 0 0 1-2.028-2.607 6.209 6.209 0 0 1-.42-3.258c.457-2.41 2.74-5.398 7.991-5.398 4.073 0 6.621 2.258 6.393 4.066-.026.499-.24.969-.6 1.315-.36.348-.841.55-1.345.565Zm18.639-3.148h-4.941l-2.392 13.332c-.512 2.762-.101 4.013 1.424 4.013.813 0 2.091-.45 3.918-2.303l.1 1.952a8.88 8.88 0 0 1-3.015 2.28 9.004 9.004 0 0 1-3.706.832c-3.461 0-5.196-2.41-4.374-6.873l2.392-13.233h-3.863l.302-2.06h3.899l1.023-5.965h5.699l-1.069 5.964h4.941l-.338 2.06v.001Z" fill="#9C9C9C"/>
</svg>
